/* XPM */
static char *out[] = {
/* columns rows colors chars-per-pixel */
"80 40 71 1 ",
"  c None",
". c #0C0C0C",
"X c #100905",
"o c gray8",
"O c #181818",
"+ c #1B1B1B",
"@ c #1D1D1D",
"# c #201005",
"$ c #201207",
"% c #221409",
"& c #29180B",
"* c #362212",
"= c #232323",
"- c gray14",
"; c #2E2C2B",
": c #2D2D2D",
"> c gray18",
", c #352D27",
"< c #3D3229",
"1 c #313131",
"2 c #323232",
"3 c #373331",
"4 c #343434",
"5 c #353535",
"6 c #373737",
"7 c #3D3936",
"8 c gray22",
"9 c #393939",
"0 c #3F3F3F",
"q c #44250F",
"w c #5E300E",
"e c #452711",
"r c #492A11",
"t c #4D2B12",
"y c #492A14",
"u c #4A2B15",
"i c #452B18",
"p c #573114",
"a c #583417",
"s c #673916",
"d c #693B17",
"f c #673D1B",
"g c #693F1C",
"h c #543A25",
"j c #77441B",
"k c #7C4419",
"l c #7F451A",
"z c #78461E",
"x c #45403B",
"c c #554437",
"v c #7A4821",
"b c gray25",
"n c #414140",
"m c #474644",
"M c #4F4B48",
"N c #4C4C4C",
"B c #5A4F47",
"V c #51504F",
"C c #515151",
"Z c gray32",
"A c #5A5755",
"S c #834213",
"D c #894615",
"F c #8C4816",
"G c #82471A",
"H c #8F4E1C",
"J c #894E21",
"K c #8E5121",
"L c #8D5324",
"P c #925322",
"I c #955928",
/* pixels */
"                                                                                ",
"                                                                                ",
"                                                                                ",
"                                                                                ",
"                                                                                ",
"                                                                                ",
"                                                                                ",
"                                      O+1o                                      ",
"                                     9VM7A0:                                    ",
"                                    nBhwfpcmb                                   ",
"                                   ZxvKFIHliCo                                  ",
"                                   8tPPFIHHL9b                                  ",
"                                  21FPPFIHHIyN                                  ",
"                                  =-FPPFIHHIe6                                  ",
"                                  54FPPFIHGg*C                                  ",
"                                  @@FPPFIHs,;>                                  ",
"                                  21FPPFIHHIyN                                  ",
"                                  =-DjJFIHHIe6                                  ",
"                                  54SrzFIHHIuC                                  ",
"                                  @@SrzFIHHIq>                                  ",
"                                  21FPPFIHHIyN                                  ",
"                                  =-FPPFIHHIe6                                  ",
"                                  54FPPFIHHIuC                                  ",
"                                  @@FPPFIHka&>                                  ",
"                                  21FPPFIHd<3N                                  ",
"                                  =-FPPFIHHIe6                                  ",
"                                  54FPPFIHHIuC                                  ",
"                                   .#$$#%$$%X                                   ",
"                                                                                ",
"                                                                                ",
"                                                                                ",
"                                                                                ",
"                                                                                ",
"                                                                                ",
"                                                                                ",
"                                                                                ",
"                                                                                ",
"                                                                                ",
"                                                                                ",
"                                                                                "
};
