/* XPM */
static char *out[] = {
/* columns rows colors chars-per-pixel */
"100 100 6 1 ",
"  c None",
". c black",
"X c DimGray",
"o c SaddleBrown",
"O c #A37343",
"+ c gray72",
/* pixels */
"                                                                                                    ",
"                                                                                                    ",
"                                                                                                    ",
"                                                                                                    ",
"                                                                                                    ",
"                                                                                                    ",
"                                                                                                    ",
"                                                                                                    ",
"                                                                                                    ",
"                                                                                                    ",
"                                                                                                    ",
"                                                                                                    ",
"                                                                                                    ",
"                                                                                                    ",
"                                                                                                    ",
"                                                                                                    ",
"                                                                                                    ",
"                                                                                                    ",
"                                               .......                                              ",
"                                            ...X.XXX.X...                                           ",
"                                          ...XXXX.X.XXXX...                                         ",
"                                         .XXX.XXXX.XXXX.XXX.                                        ",
"                                        .XXXXX.........XXXXX.                                       ",
"                                       ..XXXX..OoooOoo..XXX.X.                                      ",
"                                      .XX.X..ooOoooOoooO...XXX.                                     ",
"                                      .XXX.OoooOoooOoooOoo.XXX.                                     ",
"                                     .XXX.oOoooOoooOoooOooo.XX..                                    ",
"                                     .XXX.oOoooOoooOoooOooo.X.X.                                    ",
"                                     ..X.ooOoooOoooOoooOoooO.XX.                                    ",
"                                    .XX..ooOoooOoooOoooOoooO.XXX.                                   ",
"                                    .XX.oooOoooOoooOoooOoooOo.XX.                                   ",
"                                    .XX.oooOoooOoooOoooOoooOo.XX.                                   ",
"                                    .XX.oooOoooOoooOoooOoooOo.XX.                                   ",
"                                    ....oooOoooOoooOoooOoooOo....                                   ",
"                                    .XX.oooOoooOoooOoooOoooOo.XX.                                   ",
"                                    .XX.oooOoooOoooOoooOoooOo.XX.                                   ",
"                                    .XX.oooOoooOoooOoooOoooOo.XX.                                   ",
"                                    .XX.oooOoooOoooOoooOo.....XX.                                   ",
"                                    ....oooOoooOoooOoooOo.+.+....                                   ",
"                                    .XX.oooOoooOoooOoooOo.....XX.                                   ",
"                                    .XX.oooOoooOoooOoooOoooOo.XX.                                   ",
"                                    .XX.oooOoooOoooOoooOoooOo.XX.                                   ",
"                                    .XX.oooOoooOoooOoooOoooOo.XX.                                   ",
"                                    ....oooOoooOoooOoooOoooOo....                                   ",
"                                    .XX.oooOoooOoooOoooOoooOo.XX.                                   ",
"                                    .XX.oo....oOoooOoooOoooOo.XX.                                   ",
"                                    .XX.ooo..ooOoooOoooOoooOo.XX.                                   ",
"                                    .XX.oo.Oo.oOoooOoooOoooOo.XX.                                   ",
"                                    ....oo.Oo.oOoooOoooOoooOo....                                   ",
"                                    .XX.ooo..ooOoooOoooOoooOo.XX.                                   ",
"                                    .XX.oooOoooOoooOoooOoooOo.XX.                                   ",
"                                    .XX.oooOoooOoooOoooOoooOo.XX.                                   ",
"                                    .XX.oooOoooOoooOoooOoooOo.XX.                                   ",
"                                    ....oooOoooOoooOoooOoooOo....                                   ",
"                                    .XX.oooOoooOoooOoooOoooOo.XX.                                   ",
"                                    .XX.oooOoooOoooOoooOoooOo.XX.                                   ",
"                                    .XX.oooOoooOoooOoooOoooOo.XX.                                   ",
"                                    .XX.oooOoooOoooOoooOoooOo.XX.                                   ",
"                                    ....oooOoooOoooOoooOoooOo....                                   ",
"                                    .XX.oooOoooOoooOoooOo.....XX.                                   ",
"                                    .XX.oooOoooOoooOoooOo.+.+.XX.                                   ",
"                                    .XX.oooOoooOoooOoooOo.....XX.                                   ",
"                                    .XX.oooOoooOoooOoooOoooOo.XX.                                   ",
"                                    ....oooOoooOoooOoooOoooOo....                                   ",
"                                    .XX.oooOoooOoooOoooOoooOo.XX.                                   ",
"                                    .XX.oooOoooOoooOoooOoooOo.XX.                                   ",
"                                    .XX.oooOoooOoooOoooOoooOo.XX.                                   ",
"                                    .XX.oooOoooOoooOoooOoooOo.XX.                                   ",
"                                    .............................                                   ",
"                                                                                                    ",
"                                                                                                    ",
"                                                                                                    ",
"                                                                                                    ",
"                                                                                                    ",
"                                                                                                    ",
"                                                                                                    ",
"                                                                                                    ",
"                                                                                                    ",
"                                                                                                    ",
"                                                                                                    ",
"                                                                                                    ",
"                                                                                                    ",
"                                                                                                    ",
"                                                                                                    ",
"                                                                                                    ",
"                                                                                                    ",
"                                                                                                    ",
"                                                                                                    ",
"                                                                                                    ",
"                                                                                                    ",
"                                                                                                    ",
"                                                                                                    ",
"                                                                                                    ",
"                                                                                                    ",
"                                                                                                    ",
"                                                                                                    ",
"                                                                                                    ",
"                                                                                                    ",
"                                                                                                    ",
"                                                                                                    "
};
