/* XPM */
static char *out[] = {
/* columns rows colors chars-per-pixel */
"48 48 231 2 ",
"   c #00964B",
".  c #01964C",
"X  c #01974C",
"o  c #02974C",
"O  c #03974D",
"+  c #04974E",
"@  c #04984E",
"#  c #05984E",
"$  c #05984F",
"%  c #06984F",
"&  c #06994F",
"*  c #079950",
"=  c #089950",
"-  c #089951",
";  c #089A51",
":  c #0A9A52",
">  c #0B9A53",
",  c #0B9B53",
"<  c #0C9B53",
"1  c #0C9B54",
"2  c #0D9B54",
"3  c #0E9B54",
"4  c #0D9C54",
"5  c #0E9C55",
"6  c #0F9C55",
"7  c #0F9C56",
"8  c #109C56",
"9  c #109D56",
"0  c #119D57",
"q  c #129D58",
"w  c #129E58",
"e  c #149E59",
"r  c #159E5A",
"t  c #159F5A",
"y  c #169F5A",
"u  c #179F5B",
"i  c #17A05B",
"p  c #18A05C",
"a  c #19A05D",
"s  c #1AA05D",
"d  c #1BA15E",
"f  c #1CA15E",
"g  c #1CA15F",
"h  c #1CA25F",
"j  c #1DA25F",
"k  c #1DA260",
"l  c #1EA260",
"z  c #20A361",
"x  c #20A362",
"c  c #22A463",
"v  c #23A463",
"b  c #23A563",
"n  c #23A464",
"m  c #24A564",
"M  c #25A565",
"N  c #26A666",
"B  c #27A667",
"V  c #28A667",
"C  c #28A767",
"Z  c #29A768",
"A  c #2AA768",
"S  c #2AA769",
"D  c #2BA769",
"F  c #2BA869",
"G  c #2CA86A",
"H  c #2DA96A",
"J  c #2DA96B",
"K  c #2EA96B",
"L  c #2FA96C",
"P  c #30AA6C",
"I  c #30AA6D",
"U  c #31AB6D",
"Y  c #31AA6E",
"T  c #31AB6E",
"R  c #32AB6E",
"E  c #34AB70",
"W  c #35AC70",
"Q  c #37AD72",
"!  c #38AD72",
"~  c #39AD73",
"^  c #39AE73",
"/  c #3AAE73",
"(  c #3AAE74",
")  c #3BAE75",
"_  c #3CAE75",
"`  c #3CAF75",
"'  c #3DAF76",
"]  c #3FB078",
"[  c #41B179",
"{  c #42B179",
"}  c #44B27B",
"|  c #46B37D",
" . c #47B47D",
".. c #49B47F",
"X. c #4AB57F",
"o. c #4DB581",
"O. c #4EB682",
"+. c #53B885",
"@. c #53B886",
"#. c #54B986",
"$. c #55B987",
"%. c #57BA88",
"&. c #57BA89",
"*. c #59BB8A",
"=. c #5ABB8B",
"-. c #5FBD8E",
";. c #64BF91",
":. c #64BF92",
">. c #65C092",
",. c #66C093",
"<. c #6BC296",
"1. c #6EC398",
"2. c #6FC499",
"3. c #72C59B",
"4. c #73C59C",
"5. c #74C59D",
"6. c #75C69E",
"7. c #76C69E",
"8. c #7AC8A1",
"9. c #7BC9A2",
"0. c #7CC9A3",
"q. c #7DC9A3",
"w. c #82CBA6",
"e. c #82CBA7",
"r. c #82CCA7",
"t. c #83CCA8",
"y. c #87CEAA",
"u. c #88CEAB",
"i. c #8BCFAD",
"p. c #8DD0AE",
"a. c #97D4B5",
"s. c #98D4B6",
"d. c #9DD7BA",
"f. c #9ED6BA",
"g. c #9ED7BB",
"h. c #9FD8BB",
"j. c #A3D9BE",
"k. c #A5D9BF",
"l. c #A7DAC1",
"z. c #A7DBC1",
"x. c #A8DBC1",
"c. c #A8DBC2",
"v. c #A9DBC2",
"b. c #ACDDC4",
"n. c #ADDDC5",
"m. c #ADDEC5",
"M. c #AEDEC5",
"N. c #AEDEC6",
"B. c #AFDEC6",
"V. c #AFDEC7",
"C. c #B1DFC8",
"Z. c #B2DFC8",
"A. c #B2DFC9",
"S. c #B4E0CA",
"D. c #B5E0CA",
"F. c #B8E2CD",
"G. c #B9E2CD",
"H. c #BAE3CE",
"J. c #BBE2CF",
"K. c #BBE3CF",
"L. c #BFE5D2",
"P. c #C1E5D3",
"I. c #C1E6D3",
"U. c #C2E6D4",
"Y. c #C3E6D5",
"T. c #C5E7D6",
"R. c #C6E8D7",
"E. c #C7E8D8",
"W. c #C9E8D8",
"Q. c #C9E9D9",
"!. c #CAE9DA",
"~. c #CBE9DA",
"^. c #CCEADB",
"/. c #CDEADB",
"(. c #CDEBDC",
"). c #CEEBDC",
"_. c #CFEBDD",
"`. c #D0ECDE",
"'. c #D1ECDE",
"]. c #D1ECDF",
"[. c #D2ECDF",
"{. c #D2EDDF",
"}. c #D4EDE0",
"|. c #D4EDE1",
" X c #D5EDE1",
".X c #D6EEE2",
"XX c #D8EFE3",
"oX c #D9EFE4",
"OX c #DAF0E5",
"+X c #DCF0E6",
"@X c #DCF1E6",
"#X c #DDF1E7",
"$X c #DFF2E8",
"%X c #E0F2E9",
"&X c #E2F3EB",
"*X c #E3F3EB",
"=X c #E3F4EB",
"-X c #E4F4EC",
";X c #E5F4ED",
":X c #E6F4ED",
">X c #E6F5ED",
",X c #E9F6EF",
"<X c #EAF6F0",
"1X c #EAF7F0",
"2X c #EBF7F1",
"3X c #ECF7F1",
"4X c #EDF7F2",
"5X c #EEF8F3",
"6X c #EFF8F4",
"7X c #F0F9F4",
"8X c #F0F9F5",
"9X c #F1F9F5",
"0X c #F2FAF6",
"qX c #F3FAF6",
"wX c #F3FAF7",
"eX c #F4FAF7",
"rX c #F4FBF7",
"tX c #F5FAF8",
"yX c #F5FBF8",
"uX c #F7FBF9",
"iX c #F8FCFA",
"pX c #FAFDFB",
"aX c #FAFDFC",
"sX c #FBFDFC",
"dX c #FBFEFC",
"fX c #FCFDFD",
"gX c #FCFEFD",
"hX c #FDFEFE",
"jX c #FEFEFE",
"kX c #FEFFFE",
"lX c white",
/* pixels */
"lXlXlXlX2X].].].].].].].].].].].].].].].].].].].].].].2XlXlXlXlX",
"lXlXlXlXm.: : : : s I W W W W W W W W W W W Y g : : : n.lXlXlXlX",
"lXlXlXlXx.        ] =X8X8X8X8X8X8X2X X{.-X8X;Xo.      x.lXlXlXlX",
"lXlXlXlXx.        | 7XlXlXlXlXlXlX0X{ Z $XlXwX$.      x.lXlXlXlX",
"lXlXlXlXx.        | 7XlXlXlXlXlXlXqX} D *XlXwX$.      x.lXlXlXlX",
"lXlXlXlXx.        | 7XlXtX:X&X&X&X#XD.S.1XlXwX$.      x.lXlXlXlX",
"lXlXlXlXx.        | 7XrX/._ W W W W W _ }.qXwX$.      x.lXlXlXlX",
"lXlXlXlXx.        | >X XF i q O       @ A @XwX$.      x.lXlXlXlX",
"lXlXlXlXx.        | ^.c S |.J.: X   o - i Q.;XO.      x.lXlXlXlX",
"lXlXlXlXx.        | R.g R W.V @   . 0 B.M d x 5       x.lXlXlXlX",
"lXlXlXlXx.        | -X~._.(.8     < l.4XU.c . X       x.lXlXlXlX",
"lXlXlXlXx.        | 6XhXsX].8     9 `.sXiXK.k.(       x.lXlXlXlX",
"lXlXlXlXx.        | 7XlXfX'.8     9 ).sXjXgX5X+.      x.lXlXlXlX",
"lXlXlXlXx.    O * X.9XlXfX'.0 . # = >.=XjXlXwX$.      x.lXlXlXlX",
"lXlXlXlXx.X & Q t.j.9XuXyX^.0 2 6.r t _.dXlXwX$.      x.lXlXlXlX",
"lXlXlXlXx.+ T c.T.q.9.0.8.,.1 g }.C 4 1.,XlXwX$.      x.lXlXlXlX",
"lXlXlXlXx.; %.`.,.t 7 7 7 5 d r.<Xy.a r OXlXwX$.      x.lXlXlXlX",
"lXlXlXlXx.; &.E.7.3.4.5.5.7.u.9XgX2XI e }.gXwX$.      x.lXlXlXlX",
"lXlXlXlXx.$ W p.i.l.0XiXiXiXaXkXlXyXe.l w.5XwX$.      x.lXlXlXlX",
"lXlXlXlXx.  O # # ..9XlXlXlXlXlXlXjX3XY h .XwX$.      x.lXlXlXlX",
"lXlXlXlXx.      .  .7XlXlXlXlXlXlXlX0X2.-.%X0X#.      x.lXlXlXlX",
"lXlXlXlXx.      t <.eXlXlXlXlXlXlXsX].!.qXpX).[       x.lXlXlXlX",
"lXlXlXlXx.  . 7 :.0XkXlXlXlXlXlXsXXXU K %X#X` @       x.lXlXlXlX",
"lXlXlXlXx.  o X.oX;X:X:X:X:X:X>X+XF 0 G.[.F *         x.lXlXlXlX",
"lXlXlXlXx.o 6 K ^ / P v K d p d L 6 j d K H v v b 3 o x.lXlXlXlX",
"lXlXlXlXx.% O./.C.V.s.j a.L 2 ~ h.v A.F d.Z.`.P.n.) @ x.lXlXlXlX",
"lXlXlXlXx.- =.Y.*.$.' r Z s...f.c u U.I e V L.;.k 5 o x.lXlXlXlX",
"lXlXlXlXx.- =.#XF.S.g.> e O.v.[ : w I.G o 6 N.$.      x.lXlXlXlX",
"lXlXlXlXx.- =.H.` ! c 0 J b.W F.n y P.G o 6 N.$.      x.lXlXlXlX",
"lXlXlXlXx.* @.#X_.^.Z.c M.z 2 S F.Z H.B . 2 z.o.      x.lXlXlXlX",
"lXlXlXlXm.< f E W W B d m 6 , 9 S i N t : 7 z g : : : n.lXlXlXlX",
"lXlXlXlX2X].].].].].].].].].].].].].].].].].].].].].].2XlXlXlXlX"
};
