/* XPM */
static char *out[] = {
/* columns rows colors chars-per-pixel */
"34 31 183 2 ",
"   c None",
".  c #060606",
"X  c #070707",
"o  c #0B0806",
"O  c gray3",
"+  c gray4",
"@  c #0D0B09",
"#  c #0E0B09",
"$  c #0E0C0A",
"%  c #0C0C0C",
"&  c #0E0E0E",
"*  c gray6",
"=  c #130C08",
"-  c #100E0C",
";  c #110F0E",
":  c #1E1005",
">  c #1A120B",
",  c #101010",
"<  c gray7",
"1  c #131313",
"2  c #151413",
"3  c #171412",
"4  c gray8",
"5  c #161616",
"6  c gray9",
"7  c #181513",
"8  c #1D1713",
"9  c #191919",
"0  c gray10",
"q  c #1C1A18",
"w  c #1D1A18",
"e  c #1D1B19",
"r  c #1E1B19",
"t  c #1E1B1A",
"y  c #1E1C1A",
"u  c #1F1C1A",
"i  c #1E1C1B",
"p  c #1F1C1B",
"a  c gray11",
"s  c #1D1D1D",
"d  c #1E1E1E",
"f  c #271406",
"g  c #2B1506",
"h  c #23160B",
"j  c #301A0A",
"k  c #321D0D",
"l  c #3B1D08",
"z  c #3C1E09",
"x  c #3C1F0A",
"c  c #3D1F0A",
"v  c #381F0C",
"b  c #201D1A",
"n  c #211F1E",
"m  c #3B200B",
"M  c #3D200B",
"N  c #3E210D",
"B  c #3E220D",
"V  c #292017",
"C  c #232323",
"Z  c #272423",
"A  c gray15",
"S  c #272727",
"D  c #2B2825",
"F  c #282828",
"G  c gray16",
"H  c #3B2F23",
"J  c #302C29",
"K  c #332D28",
"L  c #322E2B",
"P  c #342E29",
"I  c #353534",
"U  c #353535",
"Y  c gray21",
"T  c #373737",
"R  c #3A3735",
"E  c #3A3836",
"W  c #3B3937",
"Q  c #393939",
"!  c #3A3A3A",
"~  c #3D3B39",
"^  c #43230B",
"/  c #45240B",
"(  c #43230C",
")  c #4B270E",
"_  c #512A0E",
"`  c #592D0D",
"'  c #592E0F",
"]  c #402510",
"[  c #412813",
"{  c #412914",
"}  c #432C17",
"|  c #5B3010",
" . c #593112",
".. c #5C3213",
"X. c #56371C",
"o. c #67340F",
"O. c #69350F",
"+. c #663410",
"@. c #6F3912",
"#. c #773C12",
"$. c #7C3E11",
"%. c #7F471C",
"&. c #694221",
"*. c gray26",
"=. c #464544",
"-. c #494643",
";. c #484746",
":. c #484848",
">. c #4F4B49",
",. c #4E4E4E",
"<. c #504C48",
"1. c #515151",
"2. c #535251",
"3. c #555250",
"4. c #565351",
"5. c #545352",
"6. c #555352",
"7. c #565451",
"8. c #575452",
"9. c #575552",
"0. c #575553",
"q. c #565555",
"w. c gray34",
"e. c #595654",
"r. c #585756",
"t. c #5A5856",
"y. c gray35",
"u. c #5A5A5A",
"i. c #5B5B5B",
"p. c gray36",
"a. c gray37",
"s. c #62605F",
"d. c #616060",
"f. c #616160",
"g. c gray38",
"h. c #626262",
"j. c #646463",
"k. c #666665",
"l. c #73716F",
"z. c #854213",
"x. c #814416",
"c. c #874414",
"v. c #864415",
"b. c #874515",
"n. c #884413",
"m. c #894413",
"M. c #8A4513",
"N. c #884414",
"B. c #894514",
"V. c #8B4614",
"C. c #8A4615",
"Z. c #8A4716",
"A. c #8C4614",
"S. c #8C4716",
"D. c #8C4816",
"F. c #8D4816",
"G. c #81481C",
"H. c #8C4B1B",
"J. c #8C4C1B",
"K. c #8E4C1B",
"L. c #8F4D1B",
"P. c #8A4C1C",
"I. c #8E4F1E",
"U. c #90501F",
"Y. c #91501F",
"T. c #8D5222",
"R. c #915423",
"E. c #945524",
"W. c #935B2B",
"Q. c #905A2C",
"!. c #925A2C",
"~. c #955C2C",
"^. c #975D2D",
"/. c #956031",
"(. c #966031",
"). c #976131",
"_. c #986131",
"`. c #996131",
"'. c #996231",
"]. c #9A6232",
"[. c #946538",
"{. c #9C693A",
"}. c #9F6B3A",
/* pixels */
"                              A a G & s                             ",
"                        % & p.g.F *.u.a.:.&                         ",
"                      S h.f.W L K 8 P J ;.g.,.,                     ",
"                    d U s.<.k [.z.T.v._ H >.I w.                    ",
"                    1.a.V %.C.}.V.E.D.F./.#.R k.6                   ",
"                  5 j.E P.U.S.}.V.E.D.F.].n./ r.Y +                 ",
"                  0 =.^ J.Y.D.}.V.E.D.F.].V.W.b d.s                 ",
"                % p.i $.K.Y.D.}.V.E.D.F.].A.^...t.Q                 ",
"                + u.e M.L.Y.D.}.V.E.D.F.].A.^.O.4.T                 ",
"                O < @ M.L.Y.D.}.V.E.D.F.].A.^.O.7 &                 ",
"                % p.p M.L.Y.D.}.V.E.D.F.].A.^.O.e.!                 ",
"                + u.e M.L.Y.D.}.V.E.D.F.(.` X.N 5.T                 ",
"                + * $ M.L.Y.D.}.V.E.D.F./.: -.l.2 &                 ",
"                % u.r M.L.Y.D.}.V.E.D.F.).o.&.) 6.T                 ",
"                % i.y M.L.Y.D.}.V.E.D.F.].A.^.O.9.Q                 ",
"                . . o M.L.Y.D.}.V.E.D.F.].A.^.O.# X                 ",
"                % i.y M.m v ' }.V.E.D.F.].A.^.O.9.Q                 ",
"                % u.r M.| j @.}.V.E.D.F.].A.^.O.7.T                 ",
"                + * $ M.h G.( }.V.E.D.F.].A.^.O.3 &                 ",
"                + u.e M.x. .b.}.V.E.D.F.].A.^.O.4.T                 ",
"                % p.p M.L.Y.D.}.V.E.D.F.].A.^.O.e.!                 ",
"                O < @ M.L.Y.D.}.V.E.D.F.].A.^.O.7 &                 ",
"                + u.e M.L.Y.D.}.V.E.D.F.].A.^.O.4.T                 ",
"                % i.t M.L.Y.D.}.V.E.D.F.].A.^.O.8.Q                 ",
"                + 9 - M.L.Y.D.}.V.E.D.F.'.N.!.+.p 1                 ",
"                + y.w M.L.Y.D.}.V.E.D.F./.: D ~ 2.Y                 ",
"                % p.u M.L.Y.D.}.V.E.D.F./.f > = q.!                 ",
"                O s - M.L.Y.D.}.V.E.D.F.`.c.Q.+.n 4                 ",
"                + y.q M.L.Y.D.}.V.E.D.F.].A.^.O.3.Y                 ",
"                % i.y n.H.I.C.{.m.R.C.Z._.B.~.o.0.Q                 ",
"                + C ; l B B c } z ] x M { z [ g Z 9                 "
};
