/* XPM */
static char *out[] = {
/* columns rows colors chars-per-pixel */
"640 50 2 1 ",
"  c None",
". c white",
/* pixels */
"                                                                                                                                                                                                                                                                                                                                                                                                                                                                                                                                                                                                                                                                ",
"                                                                                                                                                                                                                                                                                                                                                                                                                                                                                                                                                                                                                                                                ",
"                                                                                                                                                                                                                                                                                                                                                                                                                                                                                                                                                                                                                                                                ",
"                                                                                                                                                                                                                                                                                                                                                                                                                                                                                                                                                                                                                                                                ",
"                                                                                                                                                                                                                                                                                                                                                                                                                                                                                                                                                                                                                                                                ",
"                                                                                                                                                                                                                                                                                                                                                                                                                                                                                                                                                                                                                                                                ",
"                                                                                                                                                                                                                                                                                                                                                                                                                                                                                                                                                                                                                                                                ",
"                                                                                                                                                                                                                                                                                                                                                                                                                                                                                                                                                                                                                                                                ",
"                                                                                                                                                                                                                                                                                                                                                                                                                                                                                                                                                                                                                                                                ",
"                                                                                                                                                                                                                                                                                                                                                                                                                                                                                                                                                                                                                                                                ",
"                                                                                                                                                                                                                                                                                                                                                                                                                                                                                                                                                                                                                                                                ",
"                                                                                                                                                                                                                                                                                                                                                                                                                                                                                                                                                                                                                                                                ",
"                                                                                                                                                                                                                                                                                                                                                                                                                                                                                                                                                                                                                                                                ",
"                                                                                                                                          .                                                                                                                             .                                                                                                                                      .                                                                                                                         .                                                                                                                      ",
"                                                                                                                                         .                                                                                                                             .                                                                                                                                      .                                                                                                                         .                                                                                                                       ",
"                                                                                                                                        .                                                                                                                             .                                                                                                                                      .                                                                                                                         .                                                                                                                        ",
"               .  .  .                  .  .  .  .        .  .  .  .      .  .  .  .     .  .  .  .     .  .     .  .               .  .              .  .  .  .                     .  .  .  .        .  .  .      .  .  .  .  .  .  .  .     .  .               .  .                 .  .  .                        .  .  .        .  .  .     .  .            .  .  .     .  .  .  .                  .  .                       .  .                     .  .           .  .  .        .  .  .  .      .  .  .                 .  .               .  .  .  .  .                    .  .  .       .  .     .  .   .  .  .  .  .  .  .  .  .  .               ",
"                .....                    ........          ........        ........       ........       ..       ..                 ..                ........                       ........          .....        .....    .....    ..       ..                 ..                   .....                          .....          .....       ..              .....       ........                    ..                         ..                       ..             .....          ........        .....                   ..                 ...........                      .....         ..       ..     ..    ..    .....    .....                ",
"                .. ..                    .. .. ..          .. .. ..        .. .. ..       .. .. ..       ..       ..                 ..                .. .. ..                       .. .. ..          .. ..        .. ..    .. ..    ..       ..                 ..                   .. ..                          .. ..          .. ..       ..              .. ..       .. .. ..                    ..                         ..                       ..             .. ..          .. .. ..        .. ..                   ..                 .. .. .. ..                      .. ..         ..       ..     ..    ..    .. ..    .. ..                ",
"            .  .  .. .                  .. .  .  .  .  .  .  .  .  .   .  .  .  .  .  .  .  .  .  .  .  .  .  .  .. .               .. .              .  .  .  .  .                  .. .  .  .  .  .  .  .  .  .   .  .  .  .  .  .  .. .     .. .               .. .              .  .  .  .  .                  .  .  .  .  .  .  .  .  .  .  .. .         .  .  .  .  .  .. .  .  .  .               .. .                    .  .. .                     .. .        .  .  .  .  .  .  .  .  .  .   .  .  .  .  .              .. .               .. .  .  .  .                 .  .  .  .  .    .. .     .. .   .  .  .  .  .  .  .  .  .  .               ",
"             ..    ..                    ..       ..    ..              ..             ..             ..    ..    ..                 ..                         ..                    ..       ..    ..       ..           ..          ..       ..                 ..                ..       ..                    ..       ..    ..       ..    ..           ..       ..    ..       ..                 ..                      .....                       ..          ..       ..    ..              ..       ..                ..                 ..                            ..       ..      ..       ..        ..             ..                      ",
"             ..    ..                    ..       ..    ..              ..             ..             ..    ..    ..                 ..                         ..                    ..       ..    ..       ..           ..          ..       ..                 ..                ..       ..                    ..       ..    ..       ..    ..           ..       ..    ..       ..                 ..                      .. ..                       ..          ..       ..    ..              ..       ..                ..                 ..                            ..       ..      ..       ..        ..             ..                      ",
"            .  .  .. .   .  .           .. .  .  .  .  .. .  .  .      .. .  .  .     .. .  .  .     .. .  .. .  .. .               .. .                 .  .  .  .   .  .           .. .  .  .  .  .. .  .  .. .         .. .        .. .  .  .. .               .. .              .  .  .  .  .  .  .            .. .     .  .  .. .     .. .  .. .         .. .     .. .  .. .  .  .  .               .. .                 .  .  .. .     .  .            .. .        .. .     .. .  .. .  .  .      .. .     .. .              .. .               .. .  .  .     .  .           .. .     .. .    .. .     .. .      .. .           .. .                     ",
"                   ..     ..             ........       ........        ..    ..       ........       ..    ..    ..                 ..                   .....        ..             ........       ..    .....           ..          ...........                 ..                      ..       ..              ..             ..       ..    ..           ..       ..    ........                    ..                   ..    ..       ..              ..          ..       ..    ..    ..        ..       ..                ..                 ........       ..             ..       ..      ..       ..        ..             ..                      ",
"                   ..     ..             .. .. ..       .. .. ..        ..    ..       .. .. ..       ..    ..    ..                 ..                   .. ..        ..             .. .. ..       ..    .. ..           ..          .. .. .. ..                 ..                      ..       ..              ..             ..       ..    ..           ..       ..    .. .. ..                    ..                   ..    ..       ..              ..          ..       ..    ..    ..        ..       ..                ..                 .. .. ..       ..             ..       ..      ..       ..        ..             ..                      ",
"                  .. .   .  .           .. .  .. .     .. .  .  .      .. .  .  .  .  .. .  .  .     .. .  .. .  .. .               .. .              .  .  .  .      .  .           .. .  .  .     .. .  .  .. .         .. .        .. .  .  .. .               .. .                    .  .  .  .  .            .. .     .  .  .. .     .. .  .. .         .. .     .. .  .. .  .. .                  .. .              .  .. .  .. .  .  .  .            .. .        .. .     .. .  .. .  .  .  .   .. .     .. .              .. .               .  .  .  .  .  .  .           .. .     .. .    .. .     .. .      .. .           .. .                     ",
"                   ..                    ..    ..       ..              ..       ..    ..             ..    ..    ..                 ..                ..                             ..             .....    ..           ..          ..       ..                 ..                         ..                    ..       ..    ..       ..    ..           ..       ..    ..    ..                    ..                ..............                    ..          ..       ..    ..       ..     ..       ..                ..                          ..                   ..       ..      ..       ..        ..             ..                      ",
"                   ..                    ..    ..       ..              ..       ..    ..             ..    ..    ..                 ..                ..                             ..             .. ..    ..           ..          ..       ..                 ..                         ..                    ..       ..    ..       ..    ..           ..       ..    ..    ..                    ..                .. .. .. .. ..                    ..          ..       ..    ..       ..     ..       ..                ..                          ..                   ..     . ..      ..       ..        ..             ..                      ",
"                  .. .   .  .           .. .  .  .  .  .  .  .  .  .   .  .  .  .. .  .  .  .  .  .  .. .  .  .  .  .               .. .              .. .  .  .  .   .  .           .. .           .. .  .  .. .         .. .        .. .     .. .               .. .              .  .  .  .  .  .  .            .  .  .  .  .  .  .  .  .  .  .. .  .  .   .  .  .  .  .  .. .  .  .  .               .. .              .  .  .  .. .  .  .  .            .. .  .  .  .  .  .  .  .  .  .  .  .. .   .  .  .  .  .              .. .               .  .  .  .  .  .  .           .  .  .  .. .    .  .  .  .  .   .  .  .  .        .. .                     ",
"                   ..     ..             ..       ..       ........        ........       ........    ..       ..                    ..                ...........     ..             ..             ..       ..           ..          ..       ..                 ..                ........       ..                 .....          .....       ........        .....       ..       ..                 ..                         ..       ..              ........       .....          ........        .....                   ..                 ........       ..                .......          .....        ..    ..          ..                      ",
"                   ..     ..             ..       ..       .. .. ..        .. .. ..       .. .. ..    ..       ..                    ..                .. .. .. ..     ..             ..             ..       ..           ..          ..       ..                 ..                .. .. ..       ..                 .. ..          .. ..       .. .. ..        .. ..       ..       ..                 ..                         ..       ..              .. .. ..       .. ..          .. .. ..        .. ..                   ..                 .. .. ..       ..                .. ..  . .       .. ..        ..    ..          ..                      ",
"                  .  .   .  .           .  .     .  .     .  .  .  .      .  .  .  .     .  .  .  .  .  .     .  .                  .  .              .  .  .  .  .   .  .           .  .           .  .     .  .         .  .        .  .     .  .               .  .              .  .  .  .     .  .               .  .  .        .  .  .     .  .  .  .      .  .  .     .  .     .  .               .  .                       .  .     .  .            .  .  .  .     .  .  .        .  .  .  .      .  .  .                 .  .               .  .  .  .     .  .              .  .  .  ..      .  .  .      .  .  .  .        .  .                     ",
"                                                                                                                                   .                                                                                                                             .                                                                                                                                      .                                                                                                                         .                                                            ...                                                              ",
"                                                                                                                                  .                                                                                                                             .                                                                                                                                      .                                                                                                                         .                                                                                                                              ",
"                                                                                                                                 .                                                                                                                             .                                                                                                                                      .                                                                                                                         .                                                                                                                               ",
"                                                                                                                                                                                                                                                                                                                                                                                                                                                                                                                                                                                                                                                                ",
"                                                                                                                                                                                                                                                                                                                                                                                                                                                                                                                                                                                                                                                                ",
"                                                                                                                                                                                                                                                                                                                                                                                                                                                                                                                                                                                                                                                                ",
"                                                                                                                                                                                                                                                                                                                                                                                                                                                                                                                                                                                                                                                                ",
"                                                                                                                                                                                                                                                                                                                                                                                                                                                                                                                                                                                                                                                                ",
"                                                                                                                                                                                                                                                                                                                                                                                                                                                                                                                                                                                                                                                                ",
"                                                                                                                                                                                                                                                                                                                                                                                                                                                                                                                                                                                                                                                                ",
"                                                                                                                                                                                                                                                                                                                                                                                                                                                                                                                                                                                                                                                                ",
"                                                                                                                                                                                                                                                                                                                                                                                                                                                                                                                                                                                                                                                                ",
"                                                                                                                                                                                                                                                                                                                                                                                                                                                                                                                                                                                                                                                                ",
"                                                                                                                                                                                                                                                                                                                                                                                                                                                                                                                                                                                                                                                                ",
"                                                                                                                                                                                                                                                                                                                                                                                                                                                                                                                                                                                                                                                                ",
"                                                                                                                                                                                                                                                                                                                                                                                                                                                                                                                                                                                                                                                                ",
"                                                                                                                                                                                                                                                                                                                                                                                                                                                                                                                                                                                                                                                                ",
"                                                                                                                                                                                                                                                                                                                                                                                                                                                                                                                                                                                                                                                                "
};
