/* XPM */
static char *out[] = {
/* columns rows colors chars-per-pixel */
"32 32 86 1 ",
"  c None",
". c #3A5EFF",
"X c #3B5EFF",
"o c #2D63FF",
"O c #2169FF",
"+ c #226AFF",
"@ c #3571FF",
"# c #3974FF",
"$ c #5C4FFF",
"% c #4F55FF",
"& c #4E56FF",
"* c #4E57FF",
"= c #4958FF",
"- c #4859FF",
"; c #5452FF",
": c #5453FF",
"> c #5553FF",
", c #5653FF",
"< c #5056FF",
"1 c #5554FF",
"2 c #5654FF",
"3 c #5B50FF",
"4 c #5B51FF",
"5 c #5C50FF",
"6 c #674BFF",
"7 c #614DFF",
"8 c #624DFF",
"9 c #614EFF",
"0 c #694AFF",
"q c #684BFF",
"w c #694BFF",
"e c #6D49FF",
"r c #6E48FF",
"t c #6E49FF",
"y c #6F49FF",
"u c #7445FF",
"i c #7545FF",
"p c #7546FF",
"a c #7646FF",
"s c #7B42FF",
"d c #7C42FF",
"f c #466BFF",
"g c #4B6EFF",
"h c #813FFF",
"j c #823EFF",
"k c #823FFF",
"l c #8E39FF",
"z c #8D3AFF",
"x c #8E3AFF",
"c c #8F3AFF",
"v c #893CFF",
"b c #893DFF",
"n c #883EFF",
"m c #9437FF",
"M c #9537FF",
"N c #9A34FF",
"B c #9B35FF",
"V c #9C34FF",
"C c #9039FF",
"Z c #9438FF",
"A c #9538FF",
"S c #9539FF",
"D c #9638FF",
"F c #A62EFF",
"G c #A72FFF",
"H c #A82EFF",
"J c #AD2CFF",
"K c #AE2DFF",
"L c #BB27FF",
"P c #B529FF",
"I c #B52AFF",
"U c #A131FF",
"Y c #A231FF",
"T c #A331FF",
"R c #A132FF",
"E c #A232FF",
"W c #A233FF",
"Q c #C224FF",
"! c #8141FF",
"~ c #6388FF",
"^ c #698CFF",
"/ c #7FB2FF",
"( c #82B3FF",
") c #AFA6FF",
"_ c #B2A7FF",
"` c #AAB8FF",
/* pixels */
"                                ",
"                                ",
"                                ",
"                                ",
"                   +O           ",
"                  @/(#          ",
"                  ~``^o         ",
"                  f)_g          ",
"                   X.           ",
"                                ",
"                 =--            ",
"             %&**&  %   <**&    ",
"           ,1    >   :,2:  ;    ",
"           4    $5         3    ",
"          8   799         7     ",
"          w  q  q  q60 wqq      ",
"          t  t  y  r  e         ",
"          a  u  i  p            ",
"          sdd   d  d            ",
"               k   h!j          ",
"              v   n   nb        ",
"      lxxcC  c   xx    z        ",
"      D    MZ   DS mA   M       ",
"      V        BN    B  B       ",
"      ERET    WU     EY  U      ",
"          FGGG        H  G      ",
"                      K   J     ",
"                       P  I     ",
"                       L  L     ",
"                        QQ      ",
"                                ",
"                                "
};
