/* XPM */
static char *wall_south_xpm[] = {
"32 32 3 1",
"  c #000000",
". c #A60000",
"X c #1A1A1A",
"                                ",
"                                ",
"                                ",
"                                ",
"                                ",
"                                ",
"                                ",
"                                ",
"                                ",
"                                ",
"                                ",
"                                ",
"                                ",
"                                ",
"                                ",
"                                ",
"                                ",
"                                ",
"                                ",
"                                ",
"                                ",
"                                ",
"                                ",
"                                ",
"XXXXXXXXXXXXXXXXXXXXXXXXXXXXXXXX",
"X............XX............XX..X",
"X............XX............XX..X",
"XXXXXXXXXXXXXXXXXXXXXXXXXXXXXXXX",
"......XX............XX..........",
"......XX............XX..........",
"XXXXXXXXXXXXXXXXXXXXXXXXXXXXXXXX",
"XXXXXXXXXXXXXXXXXXXXXXXXXXXXXXXX"
};