/* XPM */
static char *wall_west_2px[] = {
"32 32 3 1",
"  c None",
". c #A60000",
"X c #1A1A1A",
"XX                              ",
"X.                              ",
"XX                              ",
"X.                              ",
"XX                              ",
"X.                              ",
"XX                              ",
"X.                              ",
"XX                              ",
"X.                              ",
"XX                              ",
"X.                              ",
"XX                              ",
"X.                              ",
"XX                              ",
"X.                              ",
"XX                              ",
"X.                              ",
"XX                              ",
"X.                              ",
"XX                              ",
"X.                              ",
"XX                              ",
"X.                              ",
"XX                              ",
"X.                              ",
"XX                              ",
"X.                              ",
"XX                              ",
"X.                              ",
"XX                              ",
"XX                              "
};