/* XPM */
static char *wall_east_xpm[] = {
"32 32 3 1",
"  c None",
". c #A60000",
"X c #1A1A1A",
"                        XXXXXXXX",
"                        X....XX.",
"                        X....XX.",
"                        XXXXXXXX",
"                        ..XX....",
"                        ..XX....",
"                        XXXXXXXX",
"                        XXXXXXXX",
"                        XXXXXXXX",
"                        X....XX.",
"                        X....XX.",
"                        XXXXXXXX",
"                        ..XX....",
"                        ..XX....",
"                        XXXXXXXX",
"                        XXXXXXXX",
"                        XXXXXXXX",
"                        X....XX.",
"                        X....XX.",
"                        XXXXXXXX",
"                        ..XX....",
"                        ..XX....",
"                        XXXXXXXX",
"                        XXXXXXXX",
"                        XXXXXXXX",
"                        X....XX.",
"                        X....XX.",
"                        XXXXXXXX",
"                        ..XX....",
"                        ..XX....",
"                        XXXXXXXX",
"                        XXXXXXXX"
};